X:1
T:The Jealous Lover
M:3/4
L:1/2
K:C
 c/2| e e/2| d c/2| c/2 f-| f f/2| e c/2| G c/2| d3/2-| d e/2| c e/2|\
 g e/2| f/2 a-| a a/4a/4| g d/2| f e/2| c3/2-| c||
